resources/haticons/SVG/layers_clear.svg

<!-- Generated by IcoMoon.io -->
<svg version="1.1" xmlns="http://www.w3.org/2000/svg" width="24" height="24" viewBox="0 0 24 24">
<title>layers_clear</title>
<path d="M3.281 0.984l18.703 18.75-1.266 1.266-3.75-3.797-4.969 3.844-9-6.984 1.641-1.266 7.359 5.766 3.516-2.766-1.406-1.406-2.109 1.594q-0.422-0.328-3.82-2.977t-5.18-4.008l3.234-2.531-4.219-4.219zM21 9q-1.266 0.984-4.031 3.141l-7.875-7.875 2.906-2.25zM19.828 15l-1.453-1.453 1.172-0.891 1.453 1.406z"></path>
</svg>

<svg xmlns="http://www.w3.org/2000/svg" width="24" height="24"><path d="M3.281.984l18.703 18.75L20.718 21l-3.75-3.797-4.969 3.844-9-6.984 1.641-1.266 7.359 5.766 3.516-2.766-1.406-1.406L12 15.985l-3.82-2.977Q4.782 10.359 3 9l3.234-2.531L2.015 2.25zM21 9q-1.266.984-4.031 3.141L9.094 4.266 12 2.016zm-1.172 6l-1.453-1.453 1.172-.891L21 14.062z"/></svg>
